X: 7725
T: Colonel MacLeod's
R: reel
M: 4/4
K: Amixolydian
c|efec a2 cd|efec fBBc|efec a2 ed|ceBd cAAf:|
eaga f2 ed|caga fBBf|eaga f2 ed|ceBd cAAf|
eaga f2 ed|caga fBBf|eaga faea|caBa cAA|:
c|eAc2 a2cd|eAc2 fBBc|eAc2a2ed|ceBd cAA:|
f|efae f2ec|efae fBBf|efae f2ec|ceBd cAAf|
efae f2ec|efae fBBf|eaga faea|caBa cAA||

